!!!OTL: Tanqinglang
!!!ARE: Asia, China,ˇNingxia, Yanchi
!! I, 200
!!!SCT: C1432
!!!YEM: Copyright 1995, estate of Helmut Schaffrath.
**kern
*ICvox
*Ivox
*M2/4
*k[b-]
*F:
{8f
16f
16e
8f
8g
=1
2c
=2
8g
16g
16g
8cc
8cc
=3
2f}
=4
{8g
4g
8ff
=5
4cc
8b-
8g
=6
8cc
8g
8f
8d
=7
2c}
==
!!!AGN: Xiaodiao. Biaoda aiqing
!!!ONB: ESAC (Essen Associative Code) Database: HUANG
!!!AMT: simple duple
!!!AIN: vox
!!!EED: Helmut Schaffrath
!!!EEV: 1.0
*-
!!!OTL: Ri luo xishan
!!!ARE: Asia, China,ˇYunnan, Shigu
!! II, 85
!!!SCT: C1495
!!!YEM: Copyright 1995, estate of Helmut Schaffrath.
**kern
*ICvox
*Ivox
*M4/4
*k[]
*C:
{1a
=1
1dd
=2
4cc
4dd
2a}
=3
{4a
4ee
4dd
4cc
=4
4f
4g
16a
8.g
8e
8d
=5
4g
8g
8cc
4a
4a
=6
8g
8a
8g
8e
2d}
=7
{4f
8f
8g
4a
4dd
=8
8dd
8cc
8f
8g
2a
=9
4g
8g
8cc
4a
4a
=10
8g
8a
8g
8e
2d}
==
!!!AGN: Shange. NannÅ qing
!!!AMT: simple quadruple
!!!AIN: vox
!!!EED: Helmut Schaffrath
!!!EEV: 1.0
*-
